flaticon/household/fridge-1.svg

<svg xmlns="http://www.w3.org/2000/svg" width="32" height="32" viewBox="0 0 24 24">
    <path d="M16.398438 3.601562L17.199219 3.601562C17.421875 3.601562 17.601562 3.421875 17.601562 3.199219 17.601562 2.980469 17.421875 2.800781 17.199219 2.800781L16.398438 2.800781C16.179688 2.800781 16 2.980469 16 3.199219 16 3.421875 16.179688 3.601562 16.398438 3.601562zM13.199219 15.601562L20 15.601562 20 8.800781 13.199219 8.800781zM14 9.601562L19.199219 9.601562 19.199219 14.800781 14 14.800781zM14 9.601562"/>
    <path d="M 19.761719 0 L 4.222656 0 C 3.21875 0 2.398438 0.820312 2.398438 1.824219 L 2.398438 22.828125 C 2.398438 23.472656 2.925781 24 3.570312 24 L 20.429688 24 C 21.074219 24 21.601562 23.472656 21.601562 22.828125 L 21.601562 1.816406 C 21.578125 0.816406 20.753906 0 19.761719 0 Z M 3.199219 22.828125 L 3.199219 1.824219 C 3.199219 1.257812 3.660156 0.800781 4.222656 0.800781 L 11.601562 0.800781 L 11.601562 23.199219 L 3.570312 23.199219 C 3.367188 23.199219 3.199219 23.03125 3.199219 22.828125 Z M 20.800781 22.828125 C 20.800781 23.03125 20.632812 23.199219 20.429688 23.199219 L 12.398438 23.199219 L 12.398438 0.800781 L 19.761719 0.800781 C 20.324219 0.800781 20.789062 1.261719 20.800781 1.824219 Z M 20.800781 22.828125"/>
    <path d="M18.398438 10.398438L14.800781 10.398438C14.578125 10.398438 14.398438 10.578125 14.398438 10.800781 14.398438 11.019531 14.578125 11.199219 14.800781 11.199219L18.398438 11.199219C18.621094 11.199219 18.800781 11.019531 18.800781 10.800781 18.800781 10.578125 18.621094 10.398438 18.398438 10.398438zM4 8.800781L4 15.601562 10.800781 15.601562 10.800781 8.800781zM10 14.800781L4.800781 14.800781 4.800781 14.398438 10 14.398438zM10 13.601562L4.800781 13.601562 4.800781 11.601562 5.199219 11.601562 5.199219 13.199219 7.199219 13.199219 7.199219 11.601562 7.601562 11.601562 7.601562 13.199219 9.601562 13.199219 9.601562 11.601562 10 11.601562zM6 11.601562L6.398438 11.601562 6.398438 12.398438 6 12.398438zM8.398438 11.601562L8.800781 11.601562 8.800781 12.398438 8.398438 12.398438zM9.601562 10.800781L4.800781 10.800781 4.800781 9.601562 10 9.601562 10 10.800781zM9.601562 10.800781"/>
</svg>

<svg xmlns="http://www.w3.org/2000/svg" width="32" height="32" viewBox="0 0 24 24">
    <path d="M16.398 3.602h.801a.401.401 0 0 0 0-.8l-.8-.001a.4.4 0 0 0 0 .8zm0 0M13.2 15.602H20V8.8h-6.8zm.8-6h5.2V14.8H14zm0 0"/>
    <path d="M19.762 0H4.222C3.22 0 2.399.82 2.399 1.824v21.004c0 .645.528 1.172 1.172 1.172h16.86c.644 0 1.172-.527 1.172-1.172V1.816C21.578.816 20.754 0 19.762 0zM3.199 22.828V1.824c0-.566.461-1.023 1.024-1.023h7.379v22.398H3.57a.373.373 0 0 1-.37-.37zm17.602 0a.373.373 0 0 1-.371.371h-8.032V.801h7.364c.562 0 1.027.46 1.039 1.023zm0 0"/>
    <path d="M18.398 10.398h-3.597a.401.401 0 0 0 0 .8l3.597.001a.401.401 0 1 0 0-.8zm0 0M4 8.8v6.802h6.8V8.8zm6 6H4.8v-.402H10zm0-1.198H4.8v-2h.4v1.597h2v-1.597h.402v1.597h2v-1.597H10zm-4-2h.398v.796H6zm2.398 0h.403v.796h-.403zm1.204-.801H4.8V9.6H10v1.2zm0 0"/>
</svg>
